Flat-Remix-Blue/mimetypes/scalable/application-x-zerosize.svg

<svg xmlns="http://www.w3.org/2000/svg" xmlns:xlink="http://www.w3.org/1999/xlink" width="36pt" height="36pt" version="1.1" viewBox="0 0 36 36"> <defs> <clipPath id="clip1"> <path d="M 20 3 L 30 3 L 30 13 L 20 13 Z M 20 3"/> </clipPath> <clipPath id="clip2"> <path d="M 20.359375 3.585938 L 29.558594 12.785156 L 21.773438 12.785156 C 21.085938 12.785156 20.359375 12.058594 20.359375 11.371094 Z M 20.359375 3.585938"/> </clipPath> <image id="image6" width="36" height="36" xlink:href="data:image/png;base64,iVBORw0KGgoAAAANSUhEUgAAACQAAAAkCAYAAADhAJiYAAAABmJLR0QA/wD/AP+gvaeTAAAAnklEQVRYhe2SywrCQAxFz2jroy1U6P//orgQBIuPRTJQihQV0yLcsxkYSHJILog/Yx3Qs/S+6ZviCKEa2HvvB3BfWqgDWmDnQrdPpIoAocqlErD1vzPQY4KzCxXY2aqB0NtSEUIJC3Y9EspS17mF8gbKF0IAx6niiFAfgAYL9QrbWMJEe+A0VRyxoctg6MbfnJ2IeUIIIYQQQgghfsgT8HoWfy6L7wcAAAAASUVORK5CYII="/> </defs> <g> <path style="fill:rgb(90.196%,90.196%,90.196%)" d="M 8.015625 4.082031 C 7.386719 4.082031 6.792969 4.675781 6.792969 5.304688 L 6.792969 30.984375 C 6.792969 31.578125 7.421875 32.207031 8.015625 32.207031 L 27.578125 32.207031 C 28.171875 32.207031 28.800781 31.578125 28.800781 30.984375 L 28.800781 12.027344 L 20.855469 4.082031 Z M 8.015625 4.082031"/> <g clip-path="url(#clip1)"> <g clip-path="url(#clip2)"> <use xlink:href="#image6"/> </g> </g> <path style="fill:rgb(100.000%,100.000%,100.000%)" d="M 20.855469 4.082031 L 28.800781 12.027344 L 22.078125 12.027344 C 21.484375 12.027344 20.855469 11.398438 20.855469 10.804688 Z M 20.855469 4.082031"/> </g> </svg>

<svg width="36pt" height="36pt" version="1.1" viewBox="0 0 36 36" xmlns="http://www.w3.org/2000/svg"><defs><filter id="a" x="-.192" y="-.192" width="1.384" height="1.384" color-interpolation-filters="sRGB"><feGaussianBlur stdDeviation="0.67843748"/></filter></defs><path d="m8.0156 4.082c-0.62891 0-1.2227 0.59375-1.2227 1.2227v25.68c0 0.59375 0.62891 1.2227 1.2227 1.2227h19.562c0.59375 0 1.2227-0.62891 1.2227-1.2227v-18.957l-7.9453-7.9453z" fill="#e5e5e5"/><path d="m20.668 3.5272 8.4805 8.4805h-7.1758c-0.63281 0-1.3047-0.67187-1.3047-1.3047z" filter="url(#a)" opacity=".2"/><path d="m20.855 4.082 7.9453 7.9453h-6.7227c-0.59375 0-1.2227-0.62891-1.2227-1.2227z" fill="#fff"/></svg>
